X:63
T:Madam Parrisot's Hornpipe
S:Petrie's Third Collection of Strathspey Reels and Country Dances &c.
Z:Steve Wyrick , 7/31/05
N:Petrie's Third Collection, page 24
L:1/16
M:2/4
R:Hornpipe
K:Bb
F2|BABc dcdB|efed c2fe|dfBd ceAc|B2B2B2:|cB|(AB)(GA) F2ed|(cd)(Bc) A2gf|
(ec)(gf) (ec)(gf)|(ec)(gf) edec|BABc dcdB|efed c2fe|(df)(Bd) (ce)(Ac)|Bdfb B2|]
